!!!!SEGMENT: pl-kk--kk-i-15--004_asola-giovanni-matteo--o-rex-gloriae.krn
!!!cenid: 16xx:1121
!!!COM: Asola, Giovanni Matteo
!!!COM-rismid: pe20000387
!!!CDT: <=1532-1609/10/01
!!!CNT: Italian
!!!OTL: O rex gloriae
!!!PDT:
!!!AGN: Sacred
!!!SMS-siglum: PL-Kk
!!!SMS-shelfmark: Kk.I.15
!!!SMS-shelfwork: 004 W
!!!SMS-variant:
!!!SMS-altvar:
!!!NIFC-rismid: 1001146647
!!!URL-scan: http://repozytorium.nifc.pl/skany/pl-kk-nut--i-15
!!!ONB-nifc: UWAGA: C (skan 0004), A (skan 0022), T (skan 0039), B (skan 0057). Następny motet: Dum complementur
**kern	**text	**kern	**text	**kern	**text	**kern	**text
*part4	*part4	*part3	*part3	*part2	*part2	*part1	*part1
*staff4	*staff4	*staff3	*staff3	*staff2	*staff2	*staff1	*staff1
*Iempty	*	*Itenor	*	*Ialto	*	*Ivox	*
*I"Baſso	*	*I"Tenore.	*	*I"Alto	*	*I"Canto.	*
*I'B	*	*I'T	*	*I'A	*	*I'S	*
*clefC4	*	*clefC3	*	*clefC3	*	*clefC2	*
*k[b-]	*	*k[b-]	*	*k[b-]	*	*k[b-]	*
*g:	*	*g:	*	*g:	*	*g:	*
*M2/1	*	*M2/1	*	*M2/1	*	*M2/1	*
*met(c|)	*	*met(c|)	*	*met(c|)	*	*met(c|)	*
=1	=1	=1	=1	=1	=1	=1	=1
*all\right	*	*all\right	*	*all\right	*	*all\right	*
!	!	!	!	!LO:TX:t=P:problem:kreska pseudotaktowa	!	!LO:TX:t=P:problem:znaki [B- b-]	!
0G/	O	00r	.	1r	.	00r	.
.	.	.	.	0d\	O	.	.
=2-	=2-	=2-	=2-	=2-	=2-	=2-	=2-
!LO:TX:t=P:problem:kreska pseudotaktowa:między nutą a kropką	!	!	!	!	!	!	!
1D/	Rex	.	.	.	.	.	.
!	!	!	!	!LO:TX:t=P:problem:kreska pseudotaktowa	!	!	!
1F/	glo-	.	.	1A/	Rex	.	.
=3-	=3-	=3-	=3-	=3-	=3-	=3-	=3-
!	!	!LO:TX:t=P:problem:kreska pseudotaktowa	!	!	!	!	!
1E/	-ri-	1r	.	1c\	Glo-	00r	.
!LO:TX:t=P:problem:kreska pseudotaktowa:między nutą a kropką	!	!	!	!LO:TX:t=P:problem:kreska pseudotaktowa	!	!	!
0D/	-ae	0d\	O	1B-/	-ri-	.	.
=4-	=4-	=4-	=4-	=4-	=4-	=4-	=4-
.	.	.	.	2A,</	-ae	.	.
*	*ij	*	*	*	*ij	*	*
.	.	.	.	1f\	Rex	.	.
!	!	!LO:TX:t=P:problem:kreska pseudotaktowa	!	!	!	!	!
2r	.	1A/	Rex	.	.	.	.
1A\	Rex	.	.	4e\	.	.	.
!	!	!	!	!LO:TX:t=P:problem:kreska pseudotaktowa	!	!	!
.	.	.	.	4d\	.	.	.
=5-	=5-	=5-	=5-	=5-	=5-	=5-	=5-
*	*	*	*	*2\right	*	*	*
.	.	1c\	Glo-	2e\	Glo-	0r	.
!LO:TX:t=P:problem:kreska pseudotaktowa:między nutą a kropką	!	!	!	!LO:TX:t=P:problem:kreska pseudotaktowa	!	!	!
2F/	.	.	.	2f\	.	.	.
2.G/	glo-	1B-/	-ri-	2d\	.	.	.
.	.	.	.	1g\	.	.	.
4G/	-ri-	.	.	.	.	.	.
=6-	=6-	=6-	=6-	=6-	=6-	=6-	=6-
!	!	!	!	!	!	!LO:TX:t=P:problem:kreska pseudotaktowa	!
1D/	-ae	2A/	-ae	.	.	1r	.
*	*	*2\right	*	*	*	*	*
!	!	!LO:TX:t=P:problem:kreska pseudotaktowa	!	!	!	!	!
.	.	2d\	.	2f\	-ri-	.	.
!	!	!	!	!LO:TX:t=P:problem:kreska pseudotaktowa	!	!	!
2r	.	4G/	.	1g\	-ae	0g\	O
*	*	*	*	*	*Xij	*	*
.	.	4A/	.	.	.	.	.
1G/	Rex	4B-/	.	.	.	.	.
.	.	4c/	.	.	.	.	.
=7-	=7-	=7-	=7-	=7-	=7-	=7-	=7-
.	.	2d\	.	2r	.	.	.
*	*	*	*ij	*	*	*	*
!LO:TX:t=P:problem:kreska pseudotaktowa	!	!	!	!	!	!	!
2C/	.	1c\	Rex	2.G/	o	.	.
!	!	!	!	!	!	!LO:TX:t=P:problem:kreska pseudotaktowa	!
2.G/	glo-	.	.	.	.	1d/	Rex
!	!	!	!	!LO:TX:t=P:problem:kreska pseudotaktowa	!	!	!
!	!	!	!	!LO:SIC:v:t=custos B	!	!	!
.	.	.	.	4A/	.	.	.
!	!	!LO:TX:t=P:problem:kreska pseudotaktowa	!	!LO:LB:g=original	!	!	!
.	.	2B-/	.	4B-/	.	.	.
!LO:SIC:v:t=custos G	!	!	!	!LO:TX:t=P:problem:kreska pseudotaktowa	!	!	!
4G/	-ri-	.	.	4c/	.	.	.
=8-	=8-	=8-	=8-	=8-	=8-	=8-	=8-
!LO:TX:t=P:problem:kreska pseudotaktowa	!	!	!	!	!	!	!
!LO:LB:g=original	!	!	!	!	!	!	!
1D/	-ae	2A/	Glo-	1d\	.	1f\	Glo-
.	.	1d\	.	.	.	.	.
!	!	!	!	!LO:TX:t=P:problem:kreska pseudotaktowa	!	!LO:TX:t=P:problem:kreska pseudotaktowa	!
1rA	.	.	.	1A/	Rex	1e\	-ri-
!	!	!LO:TX:t=P:problem:kreska pseudotaktowa	!	!	!	!	!
.	.	2c/	-ri-	.	.	.	.
=9-	=9-	=9-	=9-	=9-	=9-	=9-	=9-
!	!	!LO:TX:t=P:problem:kreska pseudotaktowa	!	!	!	!	!
!	!	!LO:SIC:v:t=custos G	!	!	!	!	!
1G/	Rex	0d\	-ae	2.B-/	Glo-	2d/	-ae
*	*	*	*Xij	*	*	*	*ij
.	.	.	.	.	.	1g\	Rex
.	.	.	.	8A/L	.	.	.
!	!	!	!	!LO:TX:t=P:problem:kreska pseudotaktowa	!	!	!
.	.	.	.	8G/J	.	.	.
!LO:TX:t=P:problem:kreska pseudotaktowa:między nutą a kropką	!	!	!	!	!	!	!
1D/	.	.	.	2A/	.	.	.
*	*	*	*	*	*	*2\right	*
!	!	!	!	!	!	!LO:TX:t=P:problem:kreska pseudotaktowa	!
!	!	!	!	!LO:TX:t=P:problem:kreska pseudotaktowa	!	!	!
.	.	.	.	2d\	.	2f\	.
=10-	=10-	=10-	=10-	=10-	=10-	=10-	=10-
!	!	!LO:LB:g=original	!	!	!	!	!
1F/	glo-	1r	.	4c/	.	1a\	Glo-
.	.	.	.	4A/	.	.	.
.	.	.	.	1d\	.	.	.
1E/	-ri-	2.G/	Do-	.	.	1g\	-ri-
.	.	.	.	2c/	-ri-	.	.
!	!	!LO:TX:t=P:problem:kreska pseudotaktowa	!	!	!	!	!
.	.	4G/	-mi-	.	.	.	.
=11-	=11-	=11-	=11-	=11-	=11-	=11-	=11-
!LO:TX:t=P:problem:kreska pseudotaktowa:między nutą a kropką	!	!	!	!LO:TX:t=P:problem:kreska pseudotaktowa	!	!LO:TX:t=P:problem:kreska pseudotaktowa	!
1D/	-ae	2B-/	-ne	0d\	-ae	1f\	-ae
*	*Xij	*	*	*	*	*	*Xij
.	.	2A/	.	.	.	.	.
0r	.	4G/	.	.	.	2.g\	Do-
.	.	4A/	.	.	.	.	.
.	.	4B-/	.	.	.	.	.
!	!	!LO:TX:t=P:problem:kreska pseudotaktowa	!	!	!	!	!
.	.	4c/	.	.	.	4g\	-mi-
=12-	=12-	=12-	=12-	=12-	=12-	=12-	=12-
!	!	!	!	!	!	!LO:SIC:v:t=custos a	!
.	.	1d\	.	0r	.	2b-\	-ne
!	!	!	!	!	!	!LO:TX:t=P:problem:kreska pseudotaktowa	!
!	!	!	!	!	!	!LO:LB:g=original	!
.	.	.	.	.	.	2a\	.
2.G/	Do-	2G/	.	.	.	1g\	.
.	.	2.d\	Do-	.	.	.	.
!LO:TX:t=P:problem:kreska pseudotaktowa:między nutą a kropką	!	!	!	!	!	!	!
4G/	-mi-	.	.	.	.	.	.
=13-	=13-	=13-	=13-	=13-	=13-	=13-	=13-
!	!	!	!	!LO:TX:t=P:problem:kreska pseudotaktowa	!	!	!
*2\right	*	*	*	*	*	*	*
2B-\	-ne	.	.	1r	.	4f\	.
.	.	4d\	-mi-	.	.	4g\	.
!	!	!LO:TX:t=P:problem:kreska pseudotaktowa	!	!	!	!	!
2A/	Vir-	2c/	-ne	.	.	4a\	.
!	!	!	!	!	!	!LO:TX:t=P:problem:kreska pseudotaktowa	!
.	.	.	.	.	.	4f\	.
!LO:TX:t=P:problem:kreska pseudotaktowa:między nutą a kropką	!	!	!	!	!	!	!
1G/	-tu-	2B-/	Vir-	2.d\	Do-	4g\	.
.	.	.	.	.	.	4a\	.
.	.	1d\	-tu-	.	.	2.b-\	.
.	.	.	.	4d\	-mi-	.	.
=14-	=14-	=14-	=14-	=14-	=14-	=14-	=14-
1A\	-tum	.	.	2f\	-ne	.	.
.	.	.	.	.	.	4a\	.
!	!	!	!	!LO:TX:t=P:problem:kreska pseudotaktowa	!	!	!
.	.	2c/	.	2e\	.	1a\	.
!	!	!LO:TX:t=P:problem:kreska pseudotaktowa	!	!	!	!	!
2.B-\	Do-	1d\	-tum	1d\	.	.	.
!	!	!	!	!	!	!LO:TX:t=P:problem:kreska pseudotaktowa	!
.	.	.	.	.	.	2g\	Vir-
!LO:TX:t=P:problem:kreska pseudotaktowa	!	!	!	!	!	!	!
4B-\	-mi-	.	.	.	.	.	.
=15-	=15-	=15-	=15-	=15-	=15-	=15-	=15-
!	!	!	!	!LO:SIC:v:t=custos f	!	!	!
*	*	*	*ij	*	*	*lig	*
2A/	-ne	2r	.	2e\	.	1a\	-tu-
!	!	!LO:TX:t=P:problem:kreska pseudotaktowa	!	!LO:TX:t=P:problem:kreska pseudotaktowa	!	!	!
!	!	!	!	!LO:LB:g=original	!	!	!
2F/	Vir-	2c/	Vir-	2f\	.	.	.
2.G/	.	2B-/	.	2d\	.	1b-\	.
.	.	1d\	.	1g\	Vir-	.	.
!LO:SIC:v:t=custos D	!	!	!	!	!	!	!
4F/	.	.	.	.	.	.	.
*	*	*	*	*	*	*Xlig	*
=16-	=16-	=16-	=16-	=16-	=16-	=16-	=16-
!LO:LB:g=original	!	!	!	!	!	!	!
4D/	.	.	.	.	.	0a\	.
4E/	.	.	.	.	.	.	.
!	!	!	!	!LO:TX:t=P:problem:kreska pseudotaktowa	!	!	!
4F/	.	2d\	-tu-	2f\	.	.	.
4G/	.	.	.	.	.	.	.
!	!	!LO:TX:a:t=P:problem:# below	!	!	!	!	!
!	!	!LO:SIC:v:t=custos d	!	!	!	!	!
1A\	-tu-	1c#X\	.	1e\	-tu-	.	.
=17-	=17-	=17-	=17-	=17-	=17-	=17-	=17-
*M3/1	*	*M3/1	*	*M3/1	*	*M3/1	*
!LO:TX:t=P:problem:kreska pseudotaktowa	!	!LO:TX:t=P:problem:kreska pseudotaktowa	!	!LO:TX:t=P:problem:kreska pseudotaktowa	!	!LO:TX:t=P:problem:kreska pseudotaktowa	!
!	!	!LO:LB:g=original	!	!	!	!	!
0.D/	-tum	0.d\,<	-tum	0.f#X\,<	-tum	0.a,<\	-tum
*	*	*	*Xij	*	*	*	*
=18-	=18-	=18-	=18-	=18-	=18-	=18-	=18-
1G/	Qui	1d\	Qui	1g\	Qui	1b-\	Qui
1G/	tri-	1B-/	tri-	1d\	tri-	1g\	tri-
!	!	!	!	!	!	!LO:TX:t=P:problem:kreska pseudotaktowa	!
!LO:TX:t=P:problem:kreska pseudotaktowa	!	!LO:TX:t=P:problem:kreska pseudotaktowa	!	!LO:TX:t=P:problem:kreska pseudotaktowa	!	!LO:SIC:v:t=custos b	!
1F/	-um-	1cny\	-um-	1fny\	-um-	1a\	-um-
=19-	=19-	=19-	=19-	=19-	=19-	=19-	=19-
!	!	!	!	!	!	!LO:LB:g=original	!
0B-\	-pha-	0d\	-pha-	0f\	-pha-	0b-\	-pha-
!LO:TX:t=P:problem:kreska pseudotaktowa	!	!LO:TX:t=P:problem:kreska pseudotaktowa	!	!LO:TX:t=P:problem:kreska pseudotaktowa	!	!LO:TX:t=P:problem:kreska pseudotaktowa	!
1F/	-tor	1c\	-tor	1f\	-tor	1a\	-tor
=20-	=20-	=20-	=20-	=20-	=20-	=20-	=20-
0G/	ho-	0B-/	ho-	0d\	ho-	0g\	ho-
!LO:TX:t=P:problem:kreska pseudotaktowa	!	!LO:TX:t=P:problem:kreska pseudotaktowa	!	!LO:TX:t=P:problem:kreska pseudotaktowa	!	!	!
1G/	-di-	1B-/	-di-	1d\	-di-	1g\	-di-
=21-	=21-	=21-	=21-	=21-	=21-	=21-	=21-
!LO:TX:t=P:problem:kreska pseudotaktowa	!	!LO:TX:t=P:problem:kreska pseudotaktowa	!	!LO:TX:t=P:problem:kreska pseudotaktowa	!	!LO:TX:t=P:problem:kreska pseudotaktowa	!
0.D/	-e	0.A/	-e	0.d\	-e	0.f#X\	-e
=22-	=22-	=22-	=22-	=22-	=22-	=22-	=22-
!	!	!	!	!LO:SIC:v:t=custos d	!	!	!
*	*ij	*	*ij	*	*ij	*	*ij
1D/	Qui	1A/	Qui	1d\	Qui	1fny\	Qui
!	!	!	!	!LO:LB:g=original	!	!	!
1G/	tri-	1B-/	tri-	1d\	tri-	1g\	tri-
!LO:TX:t=P:problem:kreska pseudotaktowa	!	!	!	!	!	!	!
!LO:SIC:v:t=custos B	!	!LO:TX:t=P:problem:kreska pseudotaktowa	!	!LO:TX:t=P:problem:kreska pseudotaktowa	!	!LO:TX:t=P:problem:kreska pseudotaktowa	!
1F/	-um-	1c\	-um-	1f\	-um-	1a\	-um-
=23-	=23-	=23-	=23-	=23-	=23-	=23-	=23-
!LO:LB:g=original	!	!	!	!	!	!	!
0B-\	-pha-	0d\	-pha-	0f\	-pha-	0b-\	-pha-
!LO:TX:t=P:problem:kreska pseudotaktowa	!	!LO:TX:t=P:problem:kreska pseudotaktowa	!	!LO:TX:t=P:problem:kreska pseudotaktowa	!	!LO:TX:t=P:problem:kreska pseudotaktowa	!
1F/	-tor	1c\	-tor	1f\	-tor	1a\	-tor
=24-	=24-	=24-	=24-	=24-	=24-	=24-	=24-
1.G/	ho-	1.B-/	ho-	1.d\	ho-	1.b-\	ho-
2F/	.	2c/	.	2e\	.	2a\	.
*	*	*	*	*col	*	*	*
2D/	.	2d\	.	0f\	.	2f\	.
!	!	!LO:TX:t=P:problem:kreska pseudotaktowa	!	!	!	!	!
!LO:TX:t=P:problem:kreska pseudotaktowa	!	!LO:SIC:v:t=custos d	!	!	!	!LO:TX:t=P:problem:kreska pseudotaktowa	!
2E/	.	2G/	.	.	.	2g\	.
=25-	=25-	=25-	=25-	=25-	=25-	=25-	=25-
2F/	.	0d\	.	.	.	2a\	.
2G/	.	.	.	.	.	2b-\	.
1A\	.	.	.	0e\	-di-	1a\	.
*	*	*	*	*Xcol	*	*	*
!	!	!LO:TX:t=P:problem:kreska pseudotaktowa	!	!	!	!LO:SIC:v:t=custos f	!
1A\	-di-	1c\	-di-	.	.	1a\	-di-
=26-	=26-	=26-	=26-	=26-	=26-	=26-	=26-
*M2/1	*	*M2/1	*	*M2/1	*	*M2/1	*
!LO:TX:t=P:problem:kreska pseudotaktowa	!	!	!	!LO:TX:t=P:problem:kreska pseudotaktowa	!	!LO:TX:t=P:problem:kreska pseudotaktowa	!
!	!	!	!	!	!	!LO:LB:g=original	!
1D/	-e	2.d\	-e	0d\	-e	1f#X\	-e
*	*Xij	*	*Xij	*	*Xij	*	*Xij
!	!	!LO:TX:t=P:problem:kreska pseudotaktowa	!	!	!	!	!
.	.	4c\	.	.	.	.	.
2r	.	2B-/	ho-	.	.	00r	.
1G/	Su-	2G/	-di-	.	.	.	.
=27-	=27-	=27-	=27-	=27-	=27-	=27-	=27-
!	!	!LO:TX:t=P:problem:kreska pseudotaktowa	!	!	!	!	!
.	.	1d\	-e	2r	.	.	.
!LO:TX:t=P:problem:kreska pseudotaktowa	!	!	!	!	!	!	!
2F/	-per	.	.	1d\	Su-	.	.
2G/	om-	00r	.	.	.	.	.
!LO:TX:t=P:problem:kreska pseudotaktowa	!	!	!	!LO:TX:t=P:problem:kreska pseudotaktowa	!	!	!
2A/	-nes	.	.	2c/	-per	.	.
=28-	=28-	=28-	=28-	=28-	=28-	=28-	=28-
2B-\	cae-	.	.	2d\	om-	.	.
!	!	!	!	!LO:TX:t=P:problem:kreska pseudotaktowa	!	!	!
2G/	-los	.	.	2e\	-nes	.	.
2A/	as-	.	.	2f\	cae-	0r	.
!LO:SIC:v:t=custos F	!	!	!	!LO:TX:t=P:problem:kreska pseudotaktowa	!	!	!
2B-\	-cen-	.	.	2d\	-los	.	.
=29-	=29-	=29-	=29-	=29-	=29-	=29-	=29-
!LO:LB:g=original	!	!	!	!	!	!	!
2c\	.	.	.	2e\	as-	.	.
!	!	!	!	!LO:TX:t=P:problem:kreska pseudotaktowa	!	!	!
!	!	!	!	!LO:SIC:v:t=custos g	!	!	!
4B-\	.	.	.	2f\	-cen-	.	.
!LO:TX:t=P:problem:kreska pseudotaktowa	!	!	!	!	!	!	!
4A\	.	.	.	.	.	.	.
!	!	!	!	!LO:LB:g=original	!	!LO:TX:t=P:problem:kreska pseudotaktowa	!
4B-\	.	0r	.	4g\	.	1r	.
4c\	.	.	.	4f\	.	.	.
1d\	.	.	.	4f\	.	.	.
.	.	.	.	8e\L	.	.	.
!	!	!	!	!LO:TX:t=P:problem:kreska pseudotaktowa	!	!	!
.	.	.	.	8d\J	.	.	.
=30-	=30-	=30-	=30-	=30-	=30-	=30-	=30-
.	.	.	.	1e\	-di-	2r	.
!LO:TX:t=P:problem:kreska pseudotaktowa	!	!	!	!	!	!	!
2c\	.	.	.	.	.	1g\	Su-
!	!	!LO:TX:t=P:problem:kreska pseudotaktowa	!	!LO:TX:t=P:problem:kreska pseudotaktowa	!	!	!
2.d\	.	2r	.	1d\	-ſti	.	.
!	!	!	!	!	!	!LO:TX:t=P:problem:kreska pseudotaktowa	!
.	.	1d\	Su-	.	.	2fny\	-per
4c\	.	.	.	.	.	.	.
=31-	=31-	=31-	=31-	=31-	=31-	=31-	=31-
2B-\	.	.	.	0r	.	2g\	om-
!	!	!LO:TX:t=P:problem:kreska pseudotaktowa	!	!	!	!LO:TX:t=P:problem:kreska pseudotaktowa	!
2A/	-dis-	2c/	-per	.	.	2a\	-nes
!LO:TX:t=P:problem:kreska pseudotaktowa	!	!	!	!	!	!	!
1G/	-ti	2d\	om-	.	.	2b-\	cae-
!	!	!	!	!	!	!LO:TX:t=P:problem:kreska pseudotaktowa	!
.	.	2e\	-nes	.	.	2g\	-los
=32-	=32-	=32-	=32-	=32-	=32-	=32-	=32-
*	*	*	*	*	*ij	*	*
00r	.	2f\	cae-	2.d\	Su-	2a\	es-
!	!	!LO:TX:t=P:problem:kreska pseudotaktowa	!	!	!	!	!
.	.	2d\	-los	.	.	2b-\	-cen-
!	!	!	!	!LO:TX:t=P:problem:kreska pseudotaktowa	!	!	!
.	.	.	.	4d\	-per	.	.
.	.	2e\	as-	2c/	om-	4cc\	.
.	.	.	.	.	.	4b-\	.
!	!	!	!	!LO:TX:t=P:problem:kreska pseudotaktowa	!	!	!
.	.	2f\	-cen-	2d\	-nes	4a\	.
!	!	!	!	!	!	!LO:TX:t=P:problem:kreska pseudotaktowa	!
.	.	.	.	.	.	4g\	.
=33-	=33-	=33-	=33-	=33-	=33-	=33-	=33-
.	.	2g\	-dis-	2G/	cae-	2b-\	.
!	!	!LO:TX:t=P:problem:kreska pseudotaktowa	!	!	!	!	!
.	.	2e\	-ti	2A/	-los	2.a\	.
!	!	!LO:TX:t=P:problem:kreska pseudotaktowa	!	!	!	!	!
!	!	!LO:SIC:v:t=custos d	!	!	!	!	!
.	.	1d\	.	2B-/	as-	.	.
.	.	.	.	.	.	4g\	.
!	!	!	!	!LO:TX:t=P:problem:kreska pseudotaktowa	!	!	!
.	.	.	.	2G/	-cen-	1g\	.
=34-	=34-	=34-	=34-	=34-	=34-	=34-	=34-
*	*	*	*	*lig	*	*	*
!	!	!LO:LB:g=original	!	!	!	!	!
1D/	ne	2r	.	1A/	.	.	.
!	!	!	!	!	!	!LO:TX:t=P:problem:kreska pseudotaktowa	!
!	!	!LO:TX:t=P:problem:kreska pseudotaktowa	!	!	!	!LO:SIC:v:t=custos g	!
.	.	2d\	Ne	.	.	2f\	-di-
*	*	*	*	*col	*	*	*
!	!	!	!	!	!	!LO:TX:t=P:problem:kreska pseudotaktowa	!
!	!	!	!	!	!	!LO:LB:g=original	!
2E-X/	de-	2B-/	de-	2.G/	.	0g\	-sti
!LO:TX:t=P:problem:kreska pseudotaktowa	!	!	!	!	!	!	!
2C/	-re-	2c/	-re-	.	.	.	.
*	*	*	*	*Xlig	*	*	*
.	.	.	.	4A/	.	.	.
*	*	*	*	*Xcol	*	*	*
=35-	=35-	=35-	=35-	=35-	=35-	=35-	=35-
!	!	!	!	!LO:TX:t=P:problem:kreska pseudotaktowa	!	!	!
!	!	!	!	!LO:N:acc=#	!	!	!
1G/	-lin-	2d\	-lin-	1BnX/	-di-	.	.
!	!	!LO:TX:t=P:problem:kreska pseudotaktowa	!	!	!	!	!
.	.	2e\	-quas	.	.	.	.
2F/	-quas	1f\	Nos	2c,</	-ſti	2r	.
*	*	*	*	*	*Xij	*	*
!	!	!	!	!LO:TX:t=P:problem:kreska pseudotaktowa	!	!	!
!LO:TX:t=P:problem:kreska pseudotaktowa	!	!	!	!LO:SIC:v:t=custos d	!	!	!
2D/	nos	.	.	2d\	ne	2a\	ne
=36-	=36-	=36-	=36-	=36-	=36-	=36-	=36-
!	!	!	!	!LO:LB:g=original	!	!	!
1.G/	Or-	1.g\	Or-	2d\	de-	2b-\	de-
!	!	!	!	!LO:TX:t=P:problem:kreska pseudotaktowa	!	!LO:TX:t=P:problem:kreska pseudotaktowa	!
.	.	.	.	2d\	-re-	2g\	-re-
.	.	.	.	1d\	-lin-	1a\	-lin-
2D/	-pha-	2f#X\	-pha-	.	.	.	.
=37-	=37-	=37-	=37-	=37-	=37-	=37-	=37-
!LO:SIC:v:t=custos D	!	!LO:TX:t=P:problem:kreska pseudotaktowa	!	!	!	!	!
1D/	-nos	1f#\	-nos	2d\	-quas	2a\	-quas
!	!	!	!	!LO:TX:t=P:problem:kreska pseudotaktowa	!	!LO:TX:t=P:problem:kreska pseudotaktowa	!
.	.	.	.	2A/	Nos	2d/	.
!LO:LB:g=original	!	!	!	!	!	!	!
0r	.	1r	.	1c\	Or-	2e/	nos
.	.	.	.	.	.	1a\	Or-
=38-	=38-	=38-	=38-	=38-	=38-	=38-	=38-
.	.	2r	.	1B-y/	-pha-	.	.
!	!	!LO:TX:t=P:problem:kreska pseudotaktowa	!	!	!	!	!
.	.	2d\	Sed	.	.	2g\	-pha-
!	!	!	!	!LO:TX:t=P:problem:kreska pseudotaktowa	!	!LO:TX:t=P:problem:kreska pseudotaktowa	!
2r	.	1fny\	mit-	1A/	-nos	0a\	-nos
!LO:TX:t=P:problem:kreska pseudotaktowa	!	!	!	!	!	!	!
2D/	Sed	.	.	.	.	.	.
=39-	=39-	=39-	=39-	=39-	=39-	=39-	=39-
1A\	mit-	2e\	-te	0r	.	.	.
!	!	!LO:TX:t=P:problem:kreska pseudotaktowa	!	!	!	!	!
.	.	2c/	pro-	.	.	.	.
2G/	-te	2d\	-miſ-	.	.	0r	.
!LO:TX:t=P:problem:kreska pseudotaktowa	!	!LO:TX:t=P:problem:kreska pseudotaktowa	!	!	!	!	!
2Eny/	pro-	2e\	-sum	.	.	.	.
=40-	=40-	=40-	=40-	=40-	=40-	=40-	=40-
2F/	-miſ-	2c/	Pa-	2r	.	.	.
!	!	!	!	!LO:TX:t=P:problem:kreska pseudotaktowa	!	!	!
2D/	-sum	1d\	-tris	2d\	Sed	.	.
1A\	Pa-	.	.	2.e\	Mit-	2r	.
!	!	!LO:TX:t=P:problem:kreska pseudotaktowa	!	!	!	!LO:TX:t=P:problem:kreska pseudotaktowa	!
.	.	2c/	in	.	.	2a\	Sed
.	.	.	.	4f\	-te	.	.
=41-	=41-	=41-	=41-	=41-	=41-	=41-	=41-
!LO:TX:t=P:problem:kreska pseudotaktowa	!	!LO:SIC:v:t=custos G	!	!LO:TX:t=P:problem:kreska pseudotaktowa	!	!	!
1G/	-tris	2d\	Nos	1g\	.	1b-\	mit-
!	!	!LO:TX:t=P:problem:kreska pseudotaktowa	!	!	!	!	!
!	!	!LO:LB:g=original	!	!	!	!	!
.	.	2G/	Sed	.	.	.	.
0r	.	1d\	mit-	2f,<\	.	2a\	-te
!	!	!	!	!	!	!LO:TX:t=P:problem:kreska pseudotaktowa	!
.	.	.	.	2d\	pro-	2f\	pro-
=42-	=42-	=42-	=42-	=42-	=42-	=42-	=42-
.	.	2c/	-te	2e\	-miſ-	2g\	-miſ-
!	!	!LO:TX:t=P:problem:kreska pseudotaktowa	!	!LO:TX:t=P:problem:kreska pseudotaktowa	!	!LO:SIC:v:t=custos b	!
.	.	2A/	pro-	2f\	-sum	2a\	-sum
!	!	!	!	!	!	!LO:LB:g=original	!
1r	.	1G/	-miſ-	2.g\	Pa-	1b-\	Pa-
.	.	.	.	8f\L	.	.	.
!	!	!	!	!LO:SIC:v:t=custos f	!	!	!
.	.	.	.	8e\J	.	.	.
=43-	=43-	=43-	=43-	=43-	=43-	=43-	=43-
!	!	!	!	!LO:LB:g=original	!	!	!
2r	.	2d,<\	-sum	2f\	.	2a\	-tris
!LO:TX:t=P:problem:kreska pseudotaktowa	!	!LO:TX:t=P:problem:kreska pseudotaktowa	!	!LO:TX:t=P:problem:kreska pseudotaktowa	!	!LO:TX:t=P:problem:kreska pseudotaktowa	!
*	*ij	*	*ij	*	*	*	*
2G/	Sed	2d\	Sed	2g\	-tris	2g\	in
!	!	!	!	!	!	!LO:TX:t=P:problem:kreska pseudotaktowa	!
1d\	mit-	1f\	mit-	1rg	.	1a\	nos
=44-	=44-	=44-	=44-	=44-	=44-	=44-	=44-
2c\	-te	2e\	-te	2re	.	2r	.
!LO:TX:t=P:problem:kreska pseudotaktowa	!	!LO:TX:t=P:problem:kreska pseudotaktowa	!	!LO:TX:t=P:problem:kreska pseudotaktowa	!	!	!
*	*	*	*	*	*ij	*	*
2A/	pro-	2c/	pro-	2e\	pro-	2cc\	pro-
2B-\	-mis-	2d\	-miſ-	1g\	-miſ-	2b-\	-miſ-
!	!	!	!	!	!	!LO:TX:t=P:problem:kreska pseudotaktowa	!
2c\	-sum	2e\	.	.	.	2g\	-sum
=45-	=45-	=45-	=45-	=45-	=45-	=45-	=45-
!LO:TX:t=P:problem:kreska pseudotaktowa	!	!LO:TX:t=P:problem:kreska pseudotaktowa	!	!	!	!	!
(<1d\	Pa-	1f\	-sum	2f\	-sum	2b-\	Pa-
*	*	*	*Xij	*	*	*	*
!	!	!	!	!LO:TX:t=P:problem:kreska pseudotaktowa	!	!	!
.	.	.	.	2d\	Pa-	1a\	-tris
2c\)	.	2e\	Pa-	2e\	.	.	.
!LO:SIC:v:t=custos A	!	!	!	!	!	!	!
2B-\	.	1d\	-tris	2g\	.	2g\	in
=46-	=46-	=46-	=46-	=46-	=46-	=46-	=46-
!LO:TX:t=P:problem:kreska pseudotaktowa	!	!	!	!	!	!LO:TX:t=P:problem:kreska pseudotaktowa	!
!LO:LB:g=original	!	!	!	!	!	!	!
1A\	-tris	.	.	2f\	.	1a\	nos
!	!	!	!	!LO:TX:t=P:problem:kreska pseudotaktowa:między nutą a kropką	!	!	!
.	.	2c/	in	2.e\	.	.	.
*	*Xij	*lig	*	*	*	*	*
1D/	in	1d\	Nos	.	.	2r	.
.	.	.	.	4d\	.	.	.
.	.	.	.	1d\	-tris	2.a\	spi-
*	*	*	*	*	*Xij	*	*
=47-	=47-	=47-	=47-	=47-	=47-	=47-	=47-
!LO:TX:t=P:problem:kreska pseudotaktowa	!	!LO:TX:t=P:problem:kreska pseudotaktowa	!	!	!	!	!
1A\	Nos	1e\	.	.	.	.	.
.	.	.	.	.	.	4a\	-ri-
!	!	!	!	!	!	!LO:TX:t=P:problem:kreska pseudotaktowa	!
.	.	.	.	2c/	in	2a\	-tum
!	!	!	!	!LO:TX:t=P:problem:kreska pseudotaktowa	!	!	!
*	*	*Xlig	*	*	*	*	*
!	!	!LO:SIC:v:t=custos f	!	!LO:TX:t=P:problem:kreska pseudotaktowa	!	!	!
2r	.	2r	.	1d\	Nos	2.f\	ve-
!	!	!LO:TX:t=P:problem:kreska pseudotaktowa:między nutą a kropką	!	!	!	!	!
!	!	!LO:LB:g=original	!	!	!	!	!
2.d\	Spi-	2.f\	Spi-	.	.	.	.
.	.	.	.	.	.	4g\	.
=48-	=48-	=48-	=48-	=48-	=48-	=48-	=48-
.	.	.	.	0r	.	4a\	.
4d\	-ri-	4f\	-ri-	.	.	4b-\	.
!LO:TX:t=P:problem:kreska pseudotaktowa	!	!LO:TX:t=P:problem:kreska pseudotaktowa	!	!	!	!LO:SIC:v:t=custos g	!
2d\	-tum	2f\	-tum	.	.	1a\	.
2c\	Ve-	2e\	Ve-	.	.	.	.
!	!	!	!	!	!	!LO:TX:t=P:problem:kreska pseudotaktowa	!
!	!	!	!	!	!	!LO:LB:g=original	!
2B-\	-ri-	2d\	-ri-	.	.	2g\	-ri-
=49-	=49-	=49-	=49-	=49-	=49-	=49-	=49-
!	!	!LO:TX:t=P:problem:kreska pseudotaktowa	!	!	!	!	!
1A\	-ta-	1c\	-ta-	1r	.	4f\	.
.	.	.	.	.	.	8e\L	.
.	.	.	.	.	.	8d\J	.
!	!	!	!	!	!	!LO:TX:t=P:problem:kreska pseudotaktowa	!
.	.	.	.	.	.	2e/	-ta-
!LO:TX:t=P:problem:kreska pseudotaktowa	!	!	!	!	!	!	!
0D/	-tis	2d\	-tis	2r	.	2d/	-tis
*	*	*	*ij	*	*	*	*ij
.	.	2.A/	Spi-	2.f\	Spi-	2.a\	spi-
=50-	=50-	=50-	=50-	=50-	=50-	=50-	=50-
.	.	4A/	-ri-	4f\	-ri-	4a\	-ri-
!	!	!	!	!LO:TX:t=P:problem:kreska pseudotaktowa	!	!	!
!	!	!LO:TX:t=P:problem:kreska pseudotaktowa	!	!LO:SIC:v:t=custos e	!	!LO:TX:t=P:problem:kreska pseudotaktowa	!
.	.	2A/	-tum	2f\	-tum	2a\	-tum
!	!	!	!	!LO:PB:g=original	!	!	!
0r	.	2c/	Ve-	2e\	ve-	2g\	ve-
.	.	2d\	-ri-	2d\	-ri-	2f\	-ri-
=51-	=51-	=51-	=51-	=51-	=51-	=51-	=51-
!	!	!	!	!LO:TX:t=P:problem:kreska pseudotaktowa	!	!LO:TX:t=P:problem:kreska pseudotaktowa	!
.	.	1A/	-ta-	1c\	-ta-	1e\	-ta-
2r	.	2B-,</	-tis	2d,<\	-tis	2d,</	-tis
!	!	!LO:TX:t=P:problem:kreska pseudotaktowa:między nutą a kropką	!	!	!	!LO:TX:t=P:problem:kreska pseudotaktowa	!
*	*ij	*	*	*	*ij	*	*
2.G/	Spi-	2.d\	Spi-	2.g\	Spi-	2.b-\	spi-
=52-	=52-	=52-	=52-	=52-	=52-	=52-	=52-
4G/	-ri-	4d\	-ri-	4g\	-ri-	4b-\	-ri-
!LO:TX:t=P:problem:kreska pseudotaktowa	!	!	!	!LO:TX:t=P:problem:kreska pseudotaktowa	!	!LO:TX:t=P:problem:kreska pseudotaktowa	!
2G/	-tum	2B-/	-tum	2d\	-tum	2b-\	-tum
2F/	Ve-	2c/	Ve-	2f\	ve-	2a\	ve-
!	!	!LO:TX:t=P:problem:kreska pseudotaktowa	!	!	!	!	!
!	!	!LO:SIC:v:t=custos B	!	!	!	!	!
2E/	-ri-	2G/	-ri-	2c/	-ri-	2g\	-ri-
=53-	=53-	=53-	=53-	=53-	=53-	=53-	=53-
*	*	*lig	*	*	*	*	*
!	!	!LO:LB:g=original	!	!	!	!	!
0D/	-ta-	1B-/	-ta-	1d\	-ta-	2f\	-ta-
.	.	.	.	.	.	1g\	.
!	!	!	!	!LO:TX:t=P:problem:kreska pseudotaktowa	!	!	!
.	.	1A/	.	1d\,<	-tis	.	.
!	!	!	!	!	!	!LO:SIC:v:t=custos g	!
!	!	!	!	!	!	!LO:TX:t=P:problem:kreska pseudotaktowa	!
.	.	.	.	.	.	2f\	.
*	*	*Xlig	*	*	*Xij	*	*
=54-	=54-	=54-	=54-	=54-	=54-	=54-	=54-
!LO:TX:t=P:problem:kreska pseudotaktowa	!	!	!	!	!	!	!
!LO:SIC:v:t=custos d	!	!	!	!	!	!LO:LB:g=original	!
1G/	-tis	2G,</	-tis	2.d\	Al-	2g,<\	-tis
*	*Xij	*	*Xij	*	*	*	*Xij
!	!	!LO:TX:t=P:problem:kreska pseudotaktowa	!	!	!	!	!
.	.	2d\	Al-	.	.	2g\	Al-
!	!	!	!	!LO:TX:t=P:problem:kreska pseudotaktowa	!	!	!
.	.	.	.	4e\	-le-	.	.
1r	.	2B-/	-le-	4f\	.	1b-\	-le-
.	.	.	.	4d\	.	.	.
.	.	2G/	-lu-	1g\	-lu-	.	.
=55-	=55-	=55-	=55-	=55-	=55-	=55-	=55-
!	!	!LO:TX:t=P:problem:kreska pseudotaktowa	!	!	!	!	!
2r	.	1d\	-ia	.	.	1a\	-lu-
!LO:TX:t=P:problem:kreska pseudotaktowa	!	!	!	!	!	!	!
2d\	Al-	.	.	2f\	-ia	.	.
!	!	!	!	!LO:TX:a:t=P:problem:fragment niewidoczny, uszkodzona karta	!	!LO:TX:t=P:problem:kreska pseudotaktowa	!
2B-\	-le-	2r	.	1ryy	.	1g\	-ia
*	*	*	*ij	*	*	*	*
2c\	-lu-	1g\	Al-	.	.	.	.
=56-	=56-	=56-	=56-	=56-	=56-	=56-	=56-
2.d\	-ia	.	.	1ryy	.	0r	.
.	.	1f\	.	.	.	.	.
!LO:TX:t=P:problem:kreska pseudotaktowa	!	!	!	!	!	!	!
4c\	.	.	.	.	.	.	.
4B-\	.	.	.	2ryy	.	.	.
4A\	.	.	.	.	.	.	.
!	!	!LO:TX:t=P:problem:kreska pseudotaktowa:między nutą a kropką	!	!	!	!	!
*	*	*	*	*	*ij	*	*
2.G/	.	2.e\	-le-	2g\yy	Al-	.	.
=57-	=57-	=57-	=57-	=57-	=57-	=57-	=57-
!	!	!	!	!LO:LB:g=original	!	!	!
.	.	.	.	2g\	-le-	1r	.
4F/	.	4d\	.	.	.	.	.
!LO:TX:t=P:problem:kreska pseudotaktowa	!	!	!	!	!	!	!
2D/	.	1d\	-lu-	2f\	-lu-	.	.
!	!	!	!	!LO:TX:t=P:problem:kreska pseudotaktowa	!	!	!
1E/	.	.	.	1g\	-ia	2r	.
!	!	!LO:TX:t=P:problem:kreska pseudotaktowa	!	!	!	!LO:TX:t=P:problem:kreska pseudotaktowa	!
*	*	*	*	*	*	*	*ij
.	.	2c/	.	.	.	2g\	Al-
=58-	=58-	=58-	=58-	=58-	=58-	=58-	=58-
!LO:TX:t=P:problem:kreska pseudotaktowa	!	!	!	!	!	!	!
1D/	.	2d,<\	-ia	1r	.	2g\	-le-
.	.	2d\	Al-	.	.	2f\	-lu-
!	!	!	!	!	!	!LO:TX:t=P:problem:kreska pseudotaktowa	!
2r	.	2G/	.	2.d\	Al-	1g\	-ia
!	!	!LO:TX:t=P:problem:kreska pseudotaktowa	!	!	!	!	!
*	*ij	*	*	*	*	*	*
2d\	Al-	2G/	-le-	.	.	.	.
!	!	!	!	!LO:TX:t=P:problem:kreska pseudotaktowa	!	!	!
.	.	.	.	4e\	.	.	.
=59-	=59-	=59-	=59-	=59-	=59-	=59-	=59-
!	!	!LO:SIC:v:t=custos e	!	!	!	!	!
2B-\	-le-	2d\	lu-	4f\	.	2r	.
.	.	.	.	4d\	.	.	.
!LO:TX:t=P:problem:kreska pseudotaktowa	!	!LO:TX:t=P:problem:kreska pseudotaktowa	!	!	!	!	!
!	!	!LO:PB:g=original	!	!	!	!	!
2c\	-lu-	2e\	.	1g\	-le-	2cc\	Al-
2.d\	-ia	4d\	.	.	.	2b-\	-le-
.	.	4G/	.	.	.	.	.
!	!	!	!	!LO:TX:t=P:problem:kreska pseudotaktowa	!	!LO:TX:t=P:problem:kreska pseudotaktowa	!
.	.	1d\	.	2f\	-lu-	2a\	-lu-
!LO:SIC:v:t=custos B	!	!	!	!	!	!	!
4c\	.	.	.	.	.	.	.
=60-	=60-	=60-	=60-	=60-	=60-	=60-	=60-
!LO:PB:g=original	!	!	!	!LO:TX:t=P:problem:kreska pseudotaktowa	!	!	!
2B-\	.	.	.	1g\	-ia	2b-\	-ia
!	!	!LO:TX:t=P:problem:kreska pseudotaktowa:między nutą a kropką	!	!	!	!	!
2.c\	.	2.e\	.	.	.	2.g\	Al-
.	.	.	.	2re	.	.	.
4B-\	.	4d\	.	.	.	4a\	.
!LO:TX:t=P:problem:kreska pseudotaktowa	!	!	!	!	!	!LO:TX:t=P:problem:kreska pseudotaktowa	!
2G/	Al-	1d\	.	2g\	Al-	2b-\	.
=61-	=61-	=61-	=61-	=61-	=61-	=61-	=61-
1A\	-le-	.	.	2e\	-le-	2.a\	le-
!	!	!LO:TX:t=P:problem:kreska pseudotaktowa	!	!LO:TX:t=P:problem:kreska pseudotaktowa	!	!	!
.	.	2c/	.	2f\	.	.	.
.	.	.	.	.	.	8g\L	.
.	.	.	.	.	.	8f\J	.
2G/	-lu-	1d\	-ia	2g\	.	2b-\	.
!LO:TX:t=P:problem:kreska pseudotaktowa	!	!	!	!LO:TX:t=P:problem:kreska pseudotaktowa	!	!	!
2D/	-ia	.	.	2f\	.	2.a\	.
=62-	=62-	=62-	=62-	=62-	=62-	=62-	=62-
2E-X/	Al-	2B-/	Al-	1e-X\	-lu-	.	.
.	.	.	.	.	.	4g\	.
!	!	!LO:TX:t=P:problem:kreska pseudotaktowa	!	!	!	!	!
2C/	-le-	2c/	-le-	.	.	1g\	-lu-
1D/	-lu-	1A/	-lu-	1d\	.	.	.
.	.	.	.	.	.	2f\	.
=63-	=63-	=63-	=63-	=63-	=63-	=63-	=63-
0G/;	-ia	0G/;	-ia	0d\;;	-ia	0g\;;	-ia
*	*Xij	*	*Xij	*	*Xij	*	*Xij
==	==	==	==	==	==	==	==
*-	*-	*-	*-	*-	*-	*-	*-
!!!RDF**kern: > = above
!!!RDF**kern: < = below
!!!system-decoration: [(s1,s2,s3,s4)]
!!!EED: Andrzej Borzym
!!!EST: 2021-03-27
!!!AIN: 1 alto 1 empty 1 tenor 1 vox
!!!ENC: Berenika Jozajtis
!!!END: 2021-03-19
